korla/apps/scalable/agentdesktop.svg

<svg width="48" height="48" xmlns="http://www.w3.org/2000/svg">
 <path d="m24 5a20 20 0 0 0 -20 20 20 20 0 0 0 2.3516 9.381l-.0274-.024c1.008 2.368.977 3.095.8184 5.073-.1105 1.378-.4841 2.785-.9512 3.578-.4234.718-.7695 1.46-.7695 1.648 0 .584 3.3776.38 6.3611-.385 3.496-.895 3.802-.893 6.668.006l-.139-.113a20 20 0 0 0 5.688.836 20 20 0 0 0 20-20 20 20 0 0 0 -20-20z" opacity=".2"/>
 <path d="m24 4a20 20 0 0 0 -20 20 20 20 0 0 0 2.3516 9.381l-.0274-.024c1.008 2.368.977 3.095.8184 5.073-.1105 1.378-.4841 2.785-.9512 3.578-.4234.718-.7695 1.46-.7695 1.648 0 .584 3.3776.38 6.3611-.385 3.496-.895 3.802-.893 6.668.006l-.139-.113a20 20 0 0 0 5.688.836 20 20 0 0 0 20-20 20 20 0 0 0 -20-20z" fill="#3ebc45"/>
 <path d="m24 4a20 20 0 0 0 -20 20 20 20 0 0 0 .0215.408 20 20 0 0 1 19.9785-19.408 20 20 0 0 1 19.979 19.582 20 20 0 0 0 .021-.582 20 20 0 0 0 -20-20zm-16.8047 33.574c-.0151.272-.0265.529-.0527.856-.1105 1.378-.4841 2.785-.9512 3.578-.4234.718-.7695 1.46-.7695 1.648 0 .1.1278.168.3066.223.1315-.27.2827-.566.4629-.871.4671-.793.8407-2.2.9512-3.578.0599-.748.0785-1.309.0527-1.856z" fill="#fff" opacity=".2"/>
 <path d="m24 9a16 16 0 0 0-16 16 16 16 0 0 0 16 16 16 16 0 0 0 9.588-3.215l-1.795-2.396a13 13 0 0 1-7.793 2.611 13 13 0 0 1-13-13 13 13 0 0 1 13-13 13 13 0 0 1 13 13c0 6-1 6-2 6s-2 0-2-6a9 9 0 0 0-9-9 9 9 0 0 0-9 9 9 9 0 0 0 9 9 9 9 0 0 0 6.84-3.166c1.034 2.705 2.819 3.166 4.16 3.166 2 0 5-1 5-9a16 16 0 0 0-16-16zm0 10a6 6 0 0 1 6 6 6 6 0 0 1-6 6 6 6 0 0 1-6-6 6 6 0 0 1 6-6z" opacity=".1"/>
 <path d="m24 8a16 16 0 0 0-16 16 16 16 0 0 0 16 16 16 16 0 0 0 9.588-3.215l-1.795-2.396a13 13 0 0 1-7.793 2.611 13 13 0 0 1-13-13 13 13 0 0 1 13-13 13 13 0 0 1 13 13c0 6-1 6-2 6s-2 0-2-6a9 9 0 0 0-9-9 9 9 0 0 0-9 9 9 9 0 0 0 9 9 9 9 0 0 0 6.84-3.166c1.034 2.705 2.819 3.166 4.16 3.166 2 0 5-1 5-9a16 16 0 0 0-16-16zm0 10a6 6 0 0 1 6 6 6 6 0 0 1-6 6 6 6 0 0 1-6-6 6 6 0 0 1 6-6z" fill="#fff"/>
</svg>

<svg xmlns="http://www.w3.org/2000/svg" width="48" height="48" version="1">
 <path style="opacity:0.2" d="M 24,5 A 20,20 0 0 0 4,25 20,20 0 0 0 6.3516,34.381 L 6.3242,34.357 C 7.3322,36.725 7.3012,37.452 7.1426,39.43 7.0321,40.808 6.6585,42.215 6.1914,43.008 5.768,43.726 5.4219,44.468 5.4219,44.656 5.4219,45.24 8.7995,45.036 11.783,44.271 15.279,43.376 15.585,43.378 18.451,44.277 L 18.312,44.164 A 20,20 0 0 0 24,45 20,20 0 0 0 44,25 20,20 0 0 0 24,5 Z"/>
 <path style="fill:#3ebc45" d="M 24,4 A 20,20 0 0 0 4,24 20,20 0 0 0 6.3516,33.381 L 6.3242,33.357 C 7.3322,35.725 7.3012,36.452 7.1426,38.43 7.0321,39.808 6.6585,41.215 6.1914,42.008 5.768,42.726 5.4219,43.468 5.4219,43.656 5.4219,44.24 8.7995,44.036 11.783,43.271 15.279,42.376 15.585,42.378 18.451,43.277 L 18.312,43.164 A 20,20 0 0 0 24,44 20,20 0 0 0 44,24 20,20 0 0 0 24,4 Z"/>
 <path style="fill:#ffffff;opacity:0.2" d="M 24 4 A 20 20 0 0 0 4 24 A 20 20 0 0 0 4.0215 24.408 A 20 20 0 0 1 24 5 A 20 20 0 0 1 43.979 24.582 A 20 20 0 0 0 44 24 A 20 20 0 0 0 24 4 z M 7.1953 37.574 C 7.1802 37.846 7.1688 38.103 7.1426 38.43 C 7.0321 39.808 6.6585 41.215 6.1914 42.008 C 5.768 42.726 5.4219 43.468 5.4219 43.656 C 5.4219 43.756 5.5497 43.824 5.7285 43.879 C 5.86 43.609 6.0112 43.313 6.1914 43.008 C 6.6585 42.215 7.0321 40.808 7.1426 39.43 C 7.2025 38.682 7.2211 38.121 7.1953 37.574 z"/>
 <path style="opacity:0.1" d="M 24,9 A 16,16 0 0 0 8,25 16,16 0 0 0 24,41 16,16 0 0 0 33.588,37.785 L 31.793,35.389 A 13,13 0 0 1 24,38 13,13 0 0 1 11,25 13,13 0 0 1 24,12 13,13 0 0 1 37,25 C 37,31 36,31 35,31 34,31 33,31 33,25 A 9,9 0 0 0 24,16 9,9 0 0 0 15,25 9,9 0 0 0 24,34 9,9 0 0 0 30.84,30.834 C 31.874,33.539 33.659,34 35,34 37,34 40,33 40,25 A 16,16 0 0 0 24,9 Z M 24,19 A 6,6 0 0 1 30,25 6,6 0 0 1 24,31 6,6 0 0 1 18,25 6,6 0 0 1 24,19 Z"/>
 <path style="fill:#ffffff" d="M 24 8 A 16 16 0 0 0 8 24 A 16 16 0 0 0 24 40 A 16 16 0 0 0 33.588 36.785 L 31.793 34.389 A 13 13 0 0 1 24 37 A 13 13 0 0 1 11 24 A 13 13 0 0 1 24 11 A 13 13 0 0 1 37 24 C 37 30 36 30 35 30 C 34 30 33 30 33 24 A 9 9 0 0 0 24 15 A 9 9 0 0 0 15 24 A 9 9 0 0 0 24 33 A 9 9 0 0 0 30.84 29.834 C 31.874 32.539 33.659 33 35 33 C 37 33 40 32 40 24 A 16 16 0 0 0 24 8 z M 24 18 A 6 6 0 0 1 30 24 A 6 6 0 0 1 24 30 A 6 6 0 0 1 18 24 A 6 6 0 0 1 24 18 z"/>
</svg>
